src/images/background/bg-bottom-desktop.svg

<svg width="1280" height="1497" fill="none" xmlns="http://www.w3.org/2000/svg">
<path d="M65.0608 379.752C78.6387 456.683 27.3444 450.461 6.19888e-06 437.733V1382.39C1.52588e-05 1567 -13 1487 1.04904e-05 1539C7.88979 1570.56 50.9171 1417.75 39.6022 1382.39C28.2873 1347.04 31.1161 1280.57 80.6189 1266.43C130.122 1252.29 137.193 1219.76 162.652 1178.75C188.11 1137.74 253.171 1057.14 411.58 1119.36C569.989 1181.58 674.652 1125.02 749.613 1068.45C898.122 956.383 1150 1069 1220 1165C1256.73 1215.38 1156.53 1472.98 1220 1497C1251.71 1509 1280 1729.57 1280 1485V364.196C1279.06 374.567 1272.08 392.197 1251.71 379.752C1191.74 349.207 1216.35 255.777 1236.15 212.881C1247 171.87 1250.58 75.7074 1178.17 19.1409C1093 -47.3853 842.387 81.3645 697 81.3643C538.16 81.364 461.083 44.596 366.32 10.6561C271.558 -23.2838 196.597 34.6968 166.895 81.3642C137.193 128.032 135.779 146.416 90.5194 167.628C1.41443 200.154 48.0885 283.589 65.0608 379.752Z" fill="#FEF3E4"/>
</svg>

<svg width="1280" height="1497" fill="none" xmlns="http://www.w3.org/2000/svg"><path d="M65.06 379.752C78.64 456.683 27.345 450.461 0 437.733v944.657C0 1567-13 1487 0 1539c7.89 31.56 50.917-121.25 39.602-156.61-11.315-35.35-8.486-101.82 41.017-115.96s56.574-46.67 82.033-87.68c25.458-41.01 90.519-121.61 248.928-59.39s263.072 5.66 338.033-50.91C898.122 956.383 1150 1069 1220 1165c36.73 50.38-63.47 307.98 0 332 31.71 12 60 232.57 60-12V364.196c-.94 10.371-7.92 28.001-28.29 15.556-59.97-30.545-35.36-123.975-15.56-166.871 10.85-41.011 14.43-137.174-57.98-193.74C1093-47.385 842.387 81.365 697 81.364c-158.84 0-235.917-36.768-330.68-70.708-94.762-33.94-169.723 24.04-199.425 70.708-29.702 46.668-31.116 65.052-76.376 86.264-89.105 32.526-42.43 115.961-25.458 212.124z" fill="#FEF3E4"/></svg>
